!!!!SEGMENT:35GenrokuHanamiOdori_c.krn
!!!OTL: 元禄花見踊
!!!OPR:Eiga Banso Kyokusyu,jidai-geki,zenpen
!!!YOY:1929
!!!ONB:Sakura,Yusan,Opening
**kern
*clefG2
*C:
*M2/4
=1
!LO:TX:a:t=[quarter]=80
4.A
8dd
=2
4ee
4r
=3
8eeL
8dd
8bn
8ddJ
=4
4ee
4r
=5
4.A
8dd
=6
4ee
4r
=7
8eeL
8dd
8bn
8ddJ
=8
4ee
4r
=9
4.A
8dd
=10
4ee
4r
=11
8eeL
8dd
8bn
8ddJ
=12
4ee
4r
=13
2bn
=14
2dd
=15
8bnL
8b
8a
8gJ
=16
4a
4r
=17
4.e
8d
=18
4.e
8d
=19
4e
8fL
8fJ
=20
4e
4r
=21
8eL
8dd
8ee
8ddJ
=22
4b-
4r
=23
8eL
8a
8bn
8aJ
=24
4f
4e
=25
4g
4g
=26
8.aL
16gJk
4e
=27
4ee
4ee
=28
4ee
4dd
=29
4bn
4b
=30
4bn
4a
=31
[2g
=32
4g]
4r
=33
4d
8eL
8dJ
=34
4e
4g
=35
4a
8aL
8eeJ
=36
2r
=37
(8qB-/
2A)
=38
4aa
4ff
=39
4ee
4dd
=40
4b-
4a
=41
4d
4e
=42
8e
4e
8g
=43
8aL
8aJ
8AL
8gJ
=44
4a
4b-
=45
4dd
4ee
=46
4ff
4ff
=47
4ee
4dd
=48
4b-
4a
=49
4bn
4b
=50
4a
4f
=51
2e
=52
4a
4f
=53
4e
4e
=54
4A
4d
=55
2e
=56
4a
4f
=57
4e
4e
=58
4A
4d
=59
4e
4r
=60
4r
4d
=61
2Bn
=62
4A
4r
=63
2g
=64
2a
=65
4bn
4b
=66
4a
4g
=67
4a
4b-
=68
4..a
16f
=69
[2e
=70
4e]
4r
=71
4.A
8d
=72
4.e
8d
=73
4e
8fL
8fJ
=74
4e
4r
=75
4.a
8g
=76
4.a
8g
=77
4A
8b-L
8b-J
=78
4a
4r
=79
4.A
8d
=80
4a
4bn
=81
4.a
8f
=82
4e
4d
=83
4Bn
4r
=84
4.bn
8g
=85
8aL
8a
8a
8gJ
=86
4a
4r
=87
4.e
8d
=88
4.e
8f
=89
4a
8fL
8fJ
=90
4e
4r
==
*-
!!!ENC: Yukiko Yoden
!!!END: 2023/06/11
